public/img/assets/icons/emptypic.svg

<svg width="32" height="32" viewBox="0 0 32 32" fill="none" xmlns="http://www.w3.org/2000/svg">
<path d="M15.9092 19.144C15.7318 19.144 15.5918 19.088 15.4892 18.976C15.3958 18.8547 15.3492 18.696 15.3492 18.5C15.3492 18.0707 15.4285 17.6693 15.5872 17.296C15.7552 16.9227 16.0352 16.5167 16.4272 16.078C16.7258 15.7513 16.9312 15.4713 17.0432 15.238C17.1645 15.0047 17.2252 14.7573 17.2252 14.496C17.2252 14.188 17.1132 13.9453 16.8892 13.768C16.6652 13.5907 16.3478 13.502 15.9372 13.502C15.5638 13.502 15.2232 13.5533 14.9152 13.656C14.6165 13.7493 14.3132 13.8847 14.0052 14.062C13.7532 14.2113 13.5292 14.2627 13.3332 14.216C13.1465 14.16 13.0112 14.048 12.9272 13.88C12.8432 13.712 12.8292 13.5253 12.8852 13.32C12.9412 13.1147 13.0905 12.9327 13.3332 12.774C13.7158 12.522 14.1545 12.3307 14.6492 12.2C15.1438 12.06 15.6105 11.99 16.0492 11.99C16.6372 11.99 17.1505 12.088 17.5892 12.284C18.0372 12.48 18.3825 12.7507 18.6252 13.096C18.8772 13.4413 19.0032 13.8473 19.0032 14.314C19.0032 14.7433 18.9052 15.1447 18.7092 15.518C18.5225 15.8913 18.1865 16.2973 17.7012 16.736C17.2625 17.1373 16.9592 17.4827 16.7912 17.772C16.6232 18.0613 16.5158 18.3693 16.4692 18.696C16.4598 18.8267 16.4038 18.934 16.3012 19.018C16.2078 19.102 16.0772 19.144 15.9092 19.144ZM15.8812 22.07C15.5638 22.07 15.3072 21.972 15.1112 21.776C14.9245 21.58 14.8312 21.328 14.8312 21.02C14.8312 20.7213 14.9245 20.4787 15.1112 20.292C15.3072 20.096 15.5638 19.998 15.8812 19.998C16.2078 19.998 16.4598 20.096 16.6372 20.292C16.8238 20.4787 16.9172 20.7213 16.9172 21.02C16.9172 21.328 16.8238 21.58 16.6372 21.776C16.4598 21.972 16.2078 22.07 15.8812 22.07Z" fill="#6892B9"/>
<path fill-rule="evenodd" clip-rule="evenodd" d="M9.06813 10.2323C7.96499 11.7715 7.65149 13.6446 7.71005 14.8866C7.71961 15.0894 7.64272 15.2871 7.49724 15.4339C7.35176 15.5807 7.15034 15.6637 6.93976 15.6637C3.73423 15.6637 1.54217 18.2736 1.54217 20.6814C1.54217 23.0907 3.35009 25.5133 6.93976 25.5133H23.9036C26.0967 25.5133 27.739 24.9843 28.8167 24.1452C29.8769 23.3197 30.4578 22.1442 30.4578 20.6814C30.4578 19.2149 29.8732 17.9869 28.8031 17.1139C27.722 16.232 26.0824 15.6637 23.9036 15.6637C23.4778 15.6637 23.1325 15.3309 23.1325 14.9204C23.1325 14.7007 23.0476 14.1079 22.7888 13.3177C22.535 12.543 22.1298 11.6279 21.5271 10.7564C20.3327 9.02923 18.382 7.48672 15.2289 7.48672C12.0047 7.48672 10.1407 8.73562 9.06813 10.2323ZM7.79934 9.38718C9.16849 7.47677 11.5134 6 15.2289 6C19.0156 6 21.4022 7.89555 22.8103 9.93168C23.5088 10.9418 23.971 11.9897 24.2594 12.87C24.4199 13.3599 24.5318 13.8144 24.5987 14.1947C26.7354 14.305 28.5116 14.9286 29.7993 15.979C31.2352 17.1503 32 18.8028 32 20.6814C32 22.5638 31.2316 24.1759 29.7857 25.3017C28.3574 26.4139 26.337 27 23.9036 27H6.93976C2.43305 27 0 23.8474 0 20.6814C0 17.7155 2.47275 14.6007 6.17 14.2166C6.23475 12.793 6.66792 10.9659 7.79934 9.38718Z" fill="#6892B9"/>
</svg>

<svg width="32" height="32" fill="none" xmlns="http://www.w3.org/2000/svg"><path d="M15.91 19.144a.541.541 0 0 1-.42-.168.759.759 0 0 1-.14-.476c0-.43.079-.83.237-1.204.168-.373.448-.78.84-1.218.299-.327.504-.607.616-.84.122-.233.182-.48.182-.742 0-.308-.112-.55-.336-.728-.224-.177-.541-.266-.952-.266-.373 0-.714.051-1.022.154a4.548 4.548 0 0 0-.91.406c-.252.15-.476.2-.672.154a.638.638 0 0 1-.406-.336.764.764 0 0 1-.042-.56c.056-.205.206-.387.448-.546a4.43 4.43 0 0 1 1.316-.574c.495-.14.962-.21 1.4-.21.588 0 1.102.098 1.54.294.448.196.794.467 1.036.812.252.345.378.751.378 1.218 0 .43-.098.83-.294 1.204-.186.373-.523.78-1.008 1.218-.439.401-.742.747-.91 1.036-.168.29-.275.597-.322.924a.441.441 0 0 1-.168.322c-.093.084-.224.126-.392.126Zm-.029 2.926c-.317 0-.574-.098-.77-.294-.187-.196-.28-.448-.28-.756 0-.299.094-.541.28-.728.196-.196.453-.294.77-.294.327 0 .579.098.756.294.187.187.28.43.28.728 0 .308-.093.56-.28.756-.177.196-.43.294-.756.294Z" fill="#6892B9"/><path fill-rule="evenodd" clip-rule="evenodd" d="M9.068 10.232c-1.103 1.54-1.417 3.413-1.358 4.655.01.202-.067.4-.213.547a.785.785 0 0 1-.557.23c-3.206 0-5.398 2.61-5.398 5.017 0 2.41 1.808 4.832 5.398 4.832h16.964c2.193 0 3.835-.529 4.913-1.368 1.06-.825 1.64-2 1.64-3.464 0-1.466-.584-2.694-1.654-3.567-1.081-.882-2.72-1.45-4.9-1.45a.758.758 0 0 1-.77-.744c0-.22-.085-.812-.344-1.602a10.067 10.067 0 0 0-1.262-2.562c-1.194-1.727-3.145-3.27-6.298-3.27-3.224 0-5.088 1.25-6.16 2.746ZM7.8 9.387C9.17 7.477 11.513 6 15.23 6c3.787 0 6.173 1.896 7.581 3.932a11.532 11.532 0 0 1 1.45 2.938c.16.49.272.944.339 1.325 2.136.11 3.913.734 5.2 1.784C31.235 17.15 32 18.803 32 20.681c0 1.883-.768 3.495-2.214 4.62C28.357 26.415 26.337 27 23.904 27H6.94C2.433 27 0 23.847 0 20.681c0-2.966 2.473-6.08 6.17-6.464.065-1.424.498-3.251 1.63-4.83Z" fill="#6892B9"/></svg>
